X:370
T: Banshee [The]
T: McMahon's
M: 4/4
L: 1/8
R: Reel
K: G
G3D EDB,D|GFGB d2Bd|efed BAGA|BAGE EDD2|
G3D EDB,D|GFGB d2Bd|efed BAGA|BAGE EDD2 :|
eaag efge|dBBA B3 d|eB~B2 Bgfg|eBBA B3d|
eaag efge|dBBA ~B3d|efed BAGA|BAGE EDD2 :|
